X:1
T:G minor Genevan Exiles, 1564 Harmonized by Thomas Ravenscroft, 1621
T:Thomas Sternhold, 1547 86. 86. (C. M.)
T:Oxford (Psalm 4) No copyright. Transcribed from Ravenscroft, The Whole Booke of Psalmes, 1621.
%%score [ 1 2 3 4 ]
L:1/8
M:12/4
K:F
V:1 treble nm="Cantus" snm="Tr."
V:2 treble nm="Medius" snm="M."
V:3 treble-8 nm="Tenor" snm="T."
V:4 bass nm="Bassus" snm="B."
V:1
 A4 A2 A2 B2 B2 c4 c2 c4 z2 | d4 d2 A2 B2 c2 d4 z2 | c4 c2 c2 B2 B2 A4 B2 A4 | d2 | %4
w: 1.~O God, Thou art my right- eous- ness,|Lord, hear me when I call;|Thou hast set me at li- ber- ty|When|
 c4 B2 c2 A4 =B8 |] %5
w: I was bound and thrall.|
V:2
 d4 d2 d2 d2 d2 f4 f2 f4 z2 | z2 A2 A2 d2 d2 f2 f4 z2 | f4 f2 f2 d2 d2 d4 d2 d4 | f2 | %4
w: 2.~Have mer- cy, Lord, there- fore on me|And grant me my re- quest:|For un- to Thee in- ces- sant- ly|To|
 f4 d2 _e2 d4 d8 |] %5
w: cry I will not rest.|
V:3
 ^F4 F2 F2 G2 G2 A4 A2 A4 z2 | ^F4 F2 F2 G2 A2 B4 z2 | A4 A2 A2 G2 G2 ^F4 G2 F4 | B2 | %4
w: 3.~O mor- tal men how long will ye|My glo- ry thus des- pise?|Why wan- der ye in van- i- ty,|And|
 A4 G2 G2 ^F4 G8 |] %5
w: fol- low af- ter lies?|
V:4
 D,4 D,2 D,2 G,,2 G,2 F,4 F,2 F,4 z2 | D,4 D,2 D,2 G,2 F,2 B,,4 z2 | %2
 F,4 F,2 F,2 G,2 G,,2 D,4 G,,2 D,4 | B,,2 | F,4 G,2 C,2 D,4 G,,8 |] %5

